neru-dark-classic/22x22/emblems/emblem-music-symbolic.svg

<svg xmlns="http://www.w3.org/2000/svg" width="16" height="16"><path d="M5 1v8.19A3.01 3.01 0 0 0 4 9c-1.66 0-3 1.35-3 3 0 1.66 1.34 3 3 3s3-1.34 3-3V5h6v4.19A3.01 3.01 0 0 0 12 9c-1.66 0-3 1.35-3 3 0 1.66 1.34 3 3 3s3-1.34 3-3V1z" fill="#5c616c"/></svg>

<svg xmlns="http://www.w3.org/2000/svg" width="16" height="16" version="1.1">
 <path style="fill:#5c616c" d="M 5,1 V 9.19 C 4.68,9.08 4.36,9 4,9 2.34,9 1,10.35 1,12 1,13.66 2.34,15 4,15 5.66,15 7,13.66 7,12 V 5 H 13 V 9.19 C 12.68,9.08 12.36,9 12,9 10.34,9 9,10.35 9,12 9,13.66 10.34,15 12,15 13.66,15 15,13.66 15,12 V 1 Z"/>
</svg>
